package/converter/svg/duotone/square-down.svg

<svg xmlns="http://www.w3.org/2000/svg" viewBox="0 0 448 512"><!-- Font Awesome Pro 6.0.0-alpha2 by @fontawesome - https://fontawesome.com License - https://fontawesome.com/license (Commercial License) --><defs><style>.fa-secondary{opacity:.4}</style></defs><path d="M64 480H384C419.346 480 448 451.346 448 416V96C448 60.654 419.346 32 384 32H64C28.654 32 0 60.654 0 96V416C0 451.346 28.654 480 64 480ZM97.219 265.875C99.688 259.891 105.531 256 112 256H176V160C176 142.327 190.327 128 208 128H240C257.673 128 272 142.327 272 160V256H336C342.469 256 348.312 259.891 350.781 265.875C353.266 271.859 351.891 278.734 347.313 283.313L235.313 395.313C229.065 401.56 218.935 401.56 212.688 395.313L100.688 283.313C96.109 278.734 94.734 271.859 97.219 265.875Z" class="fa-secondary"/><path d="M97.222 265.875C99.691 259.891 105.535 256 112.004 256H176.004V160C176.004 142.327 190.33 128 208.004 128H240.004C257.677 128 272.004 142.327 272.004 160V256H336.004C342.472 256 348.316 259.891 350.785 265.875C353.269 271.859 351.894 278.734 347.316 283.313L235.316 395.313C229.068 401.56 218.939 401.56 212.691 395.313L100.691 283.313C96.113 278.734 94.738 271.859 97.222 265.875Z" class="fa-primary"/></svg>

<svg xmlns="http://www.w3.org/2000/svg" viewBox="0 0 448 512"><!--! Font Awesome Pro 6.6.0 by @fontawesome - https://fontawesome.com License - https://fontawesome.com/license (Commercial License) Copyright 2024 Fonticons, Inc. --><defs><style>.fa-secondary{opacity:.4}</style></defs><path class="fa-secondary" d="M0 96L0 416c0 35.3 28.7 64 64 64l320 0c35.3 0 64-28.7 64-64l0-320c0-35.3-28.7-64-64-64L64 32C28.7 32 0 60.7 0 96zM96 278.3C96 266 106 256 118.3 256l57.7 0 0-96c0-17.7 14.3-32 32-32l32 0c17.7 0 32 14.3 32 32l0 96 57.7 0c12.3 0 22.3 10 22.3 22.3c0 6.2-2.6 12.1-7.1 16.3c-35.7 33.3-71.4 66.6-107.1 99.9c-3.8 3.5-8.7 5.5-13.8 5.5s-10.1-2-13.8-5.5L103.1 294.6c-4.5-4.2-7.1-10.1-7.1-16.3z"/><path class="fa-primary" d="M210.2 394.5L103.1 294.6c-4.5-4.2-7.1-10.1-7.1-16.3C96 266 106 256 118.3 256l57.7 0 0-96c0-17.7 14.3-32 32-32l32 0c17.7 0 32 14.3 32 32l0 96 57.7 0c12.3 0 22.3 10 22.3 22.3c0 6.2-2.6 12.1-7.1 16.3L237.8 394.5c-3.8 3.5-8.7 5.5-13.8 5.5s-10.1-2-13.8-5.5z"/></svg>
